public/assets/img/svg/embed/space-station.svg

<svg width="81" height="80" viewBox="0 0 81 80" xmlns="http://www.w3.org/2000/svg"><g fill="#FFF" fill-rule="evenodd"><path d="M20.414 9.908c-2.05 0-3.88-1.303-4.552-3.242-.42-1.216-.342-2.523.22-3.68C16.646 1.83 17.626.96 18.84.54c2.465-.85 5.28.533 6.127 2.978.866 2.512-.47 5.26-2.98 6.125-.508.176-1.037.265-1.573.265zm0-5.998c-.13 0-.26.022-.385.066-.3.103-.54.315-.678.6-.136.283-.156.603-.053.9.207.6.885.945 1.5.732.615-.213.943-.887.73-1.503-.165-.475-.612-.795-1.116-.795z"/><path d="M23.357 19.14L19.695 8.542l3.436-1.188 3.663 10.596-3.436 1.19M17.708 71.25l-6.644-10.835 3.1-1.9 6.644 10.835-3.1 1.9M66.304 40.46L59.66 29.624l3.1-1.9 6.643 10.835-3.1 1.9M49.34 72.783c-2.71 0-5.17-1.376-6.584-3.683L24.87 39.928c-2.225-3.627-1.084-8.387 2.543-10.61l.916-.562c1.21-.744 2.604-1.138 4.024-1.138 2.71 0 5.17 1.378 6.584 3.684l17.885 29.17c1.08 1.758 1.408 3.83.927 5.834-.48 2.004-1.713 3.7-3.47 4.78l-.91.558c-1.217.745-2.61 1.14-4.03 1.14zM32.354 33.07c-.413 0-.82.117-1.176.336l-.916.56c-1.062.652-1.397 2.048-.744 3.112l17.885 29.17c.63 1.03 2.068 1.39 3.114.748l.91-.56c.52-.316.88-.814 1.02-1.402.14-.587.045-1.194-.27-1.71L34.288 34.153c-.416-.677-1.14-1.08-1.936-1.08z"/><path d="M46.123 49.166l-2.85-4.648 12.11-7.426 2.852 4.648-12.112 7.426M24.857 62.207l-2.85-4.65 12.11-7.426 2.85 4.65-12.11 7.427M59.964 49.183c-.916 0-1.813-.462-2.326-1.3l-7.934-12.94c-.378-.617-.497-1.358-.33-2.06.17-.705.612-1.312 1.228-1.69l17.495-10.726c.618-.38 1.36-.497 2.06-.327.704.17 1.312.61 1.69 1.226l7.93 12.94c.79 1.283.387 2.96-.897 3.75L61.387 48.78c-.445.274-.937.403-1.423.403zm-4.188-14.766l5.084 8.29 12.846-7.876-5.084-8.29-12.846 7.877z"/><path d="M10.977 79.22c-.213 0-.425-.026-.635-.077-.703-.168-1.312-.61-1.688-1.225L.72 64.978C.34 64.36.22 63.62.39 62.918c.17-.705.612-1.312 1.228-1.69L19.11 50.502c1.284-.786 2.963-.386 3.75.9l7.934 12.938c.378.617.497 1.358.33 2.06-.17.705-.612 1.312-1.228 1.69L12.403 78.817c-.433.265-.927.402-1.426.402zM6.792 64.45l5.085 8.293 12.845-7.876-5.086-8.29L6.792 64.45zM24.814 32.358c-6.827 0-12.716-4.64-14.323-11.282-.352-1.463.546-2.937 2.01-3.29l23.364-5.652c.7-.17 1.443-.054 2.06.324.618.377 1.06.983 1.23 1.686 1.912 7.902-2.962 15.886-10.864 17.797-1.142.277-2.31.418-3.476.418zm-7.99-10.008c1.635 2.772 4.633 4.555 7.99 4.555.733 0 1.472-.09 2.194-.264 4.058-.98 6.848-4.503 7.09-8.47l-17.273 4.18z"/></g></svg>

<?xml version="1.0" encoding="UTF-8" standalone="no"?>
<svg width="81px" height="80px" viewBox="0 0 81 80" version="1.1" xmlns="http://www.w3.org/2000/svg" xmlns:xlink="http://www.w3.org/1999/xlink">
    <g stroke="none" stroke-width="1" fill="none" fill-rule="evenodd">
        <g transform="translate(-987.000000, -3550.000000)" fill="#FFFFFF">
            <g transform="translate(987.000000, 3550.000000)">
                <path d="M20.414,9.908 C18.364,9.908 16.533,8.605 15.862,6.666 C15.442,5.45 15.52,4.143 16.083,2.986 C16.645,1.829 17.625,0.961 18.839,0.54 C21.305,-0.31 24.12,1.073 24.967,3.518 C25.833,6.03 24.496,8.777 21.986,9.643 C21.479,9.819 20.95,9.908 20.414,9.908 L20.414,9.908 Z M20.414,3.91 C20.284,3.91 20.154,3.932 20.029,3.976 C19.73,4.079 19.491,4.291 19.352,4.575 C19.216,4.859 19.196,5.179 19.299,5.476 C19.507,6.075 20.185,6.421 20.799,6.208 C21.415,5.995 21.743,5.321 21.53,4.705 C21.365,4.23 20.918,3.91 20.414,3.91 L20.414,3.91 Z"></path>
                <path d="M23.357,19.139 L19.695,8.543 L23.131,7.355 L26.793,17.951 L23.357,19.139"></path>
                <path d="M17.708,71.251 L11.064,60.415 L14.164,58.514 L20.808,69.35 L17.708,71.251"></path>
                <path d="M66.304,40.46 L59.66,29.624 L62.759,27.723 L69.403,38.559 L66.304,40.46"></path>
                <path d="M49.34,72.783 C46.631,72.783 44.171,71.407 42.756,69.1 L24.869,39.928 C22.645,36.301 23.786,31.541 27.413,29.317 L28.329,28.756 C29.541,28.012 30.934,27.618 32.354,27.618 C35.063,27.618 37.523,28.996 38.938,31.302 L56.823,60.473 C57.903,62.23 58.231,64.302 57.75,66.306 C57.269,68.31 56.037,70.007 54.28,71.085 L53.369,71.644 C52.153,72.389 50.76,72.783 49.34,72.783 L49.34,72.783 Z M32.354,33.071 C31.941,33.071 31.534,33.187 31.178,33.406 L30.262,33.967 C29.2,34.618 28.865,36.014 29.518,37.078 L47.403,66.249 C48.032,67.277 49.471,67.637 50.517,66.996 L51.427,66.437 C51.946,66.12 52.306,65.622 52.448,65.034 C52.588,64.447 52.492,63.84 52.176,63.325 L34.289,34.152 C33.874,33.475 33.151,33.071 32.354,33.071 L32.354,33.071 Z"></path>
                <path d="M46.123,49.166 L43.273,44.518 L55.384,37.092 L58.235,41.74 L46.123,49.166"></path>
                <path d="M24.857,62.207 L22.006,57.558 L34.117,50.131 L36.968,54.78 L24.857,62.207"></path>
                <path d="M59.964,49.183 C59.048,49.183 58.151,48.721 57.638,47.882 L49.704,34.943 C49.326,34.326 49.207,33.585 49.375,32.882 C49.544,32.178 49.986,31.571 50.602,31.193 L68.097,20.467 C68.715,20.087 69.457,19.97 70.158,20.14 C70.861,20.309 71.469,20.75 71.846,21.366 L79.778,34.305 C80.567,35.589 80.164,37.267 78.88,38.055 L61.387,48.781 C60.942,49.054 60.45,49.183 59.964,49.183 L59.964,49.183 Z M55.776,34.417 L60.86,42.707 L73.706,34.831 L68.622,26.541 L55.776,34.417 L55.776,34.417 Z"></path>
                <path d="M10.977,79.219 C10.764,79.219 10.552,79.194 10.342,79.143 C9.639,78.975 9.03,78.534 8.654,77.918 L0.719,64.978 C0.341,64.361 0.222,63.62 0.391,62.917 C0.56,62.213 1.002,61.606 1.618,61.228 L19.111,50.502 C20.394,49.716 22.073,50.116 22.86,51.401 L30.794,64.34 C31.172,64.957 31.291,65.698 31.123,66.401 C30.954,67.105 30.512,67.712 29.896,68.09 L12.403,78.817 C11.97,79.082 11.476,79.219 10.977,79.219 L10.977,79.219 Z M6.792,64.451 L11.877,72.743 L24.722,64.867 L19.636,56.576 L6.792,64.451 L6.792,64.451 Z"></path>
                <path d="M24.814,32.358 C17.987,32.358 12.098,27.718 10.491,21.076 C10.138,19.613 11.036,18.139 12.501,17.785 L35.864,12.134 C36.563,11.963 37.307,12.08 37.925,12.458 C38.542,12.835 38.984,13.441 39.155,14.144 C41.066,22.046 36.192,30.03 28.29,31.941 C27.148,32.217 25.979,32.358 24.814,32.358 L24.814,32.358 Z M16.825,22.35 C18.459,25.122 21.457,26.905 24.814,26.905 C25.547,26.905 26.286,26.816 27.008,26.641 C31.066,25.659 33.856,22.137 34.099,18.171 L16.825,22.35 L16.825,22.35 Z"></path>
            </g>
        </g>
    </g>
</svg>
